X:4
T:score10
L:1/8
Q:1/4=96
M:1/4
I:linebreak $
K:Eb
 (GG |[M:3/4] B3 G G2 | B4) (GB | e2 d3 c | c2 B2) (FG |$ A2 F2 FG | A4) (FA | dc B2 d2 | %8
[M:2/4] e4) |] %9
